img/instagram.svg

<svg width="21" height="20" viewBox="0 0 21 20" fill="none" xmlns="http://www.w3.org/2000/svg">
<path id="instagram" fill-rule="evenodd" clip-rule="evenodd" d="M10.3334 0C7.61754 0 7.27754 0.0116667 6.21087 0.06C2.57921 0.226667 0.560874 2.24167 0.394207 5.87667C0.345041 6.94417 0.333374 7.28417 0.333374 10C0.333374 12.7158 0.345041 13.0567 0.393374 14.1233C0.560041 17.755 2.57504 19.7733 6.21004 19.94C7.27754 19.9883 7.61754 20 10.3334 20C13.0492 20 13.39 19.9883 14.4567 19.94C18.085 19.7733 20.1084 17.7583 20.2725 14.1233C20.3217 13.0567 20.3334 12.7158 20.3334 10C20.3334 7.28417 20.3217 6.94417 20.2734 5.8775C20.11 2.24917 18.0925 0.2275 14.4575 0.0608333C13.39 0.0116667 13.0492 0 10.3334 0ZM10.3334 1.8025C13.0034 1.8025 13.32 1.8125 14.375 1.86083C17.085 1.98417 18.3509 3.27 18.4742 5.96C18.5225 7.01417 18.5317 7.33083 18.5317 10.0008C18.5317 12.6717 18.5217 12.9875 18.4742 14.0417C18.35 16.7292 17.0875 18.0175 14.375 18.1408C13.32 18.1892 13.005 18.1992 10.3334 18.1992C7.66337 18.1992 7.34671 18.1892 6.29254 18.1408C3.57587 18.0167 2.31671 16.725 2.19337 14.0408C2.14504 12.9867 2.13504 12.6708 2.13504 10C2.13504 7.33 2.14587 7.01417 2.19337 5.95917C2.31754 3.27 3.58004 1.98333 6.29254 1.86C7.34754 1.8125 7.66337 1.8025 10.3334 1.8025ZM5.19837 10C5.19837 7.16417 7.49754 4.865 10.3334 4.865C13.1692 4.865 15.4684 7.16417 15.4684 10C15.4684 12.8367 13.1692 15.1358 10.3334 15.1358C7.49754 15.1358 5.19837 12.8358 5.19837 10ZM10.3334 13.3333C8.49254 13.3333 7.00004 11.8417 7.00004 10C7.00004 8.15917 8.49254 6.66667 10.3334 6.66667C12.1742 6.66667 13.6667 8.15917 13.6667 10C13.6667 11.8417 12.1742 13.3333 10.3334 13.3333ZM14.4709 4.6625C14.4709 4 15.0084 3.4625 15.6717 3.4625C16.3342 3.4625 16.8709 4 16.8709 4.6625C16.8709 5.325 16.3342 5.8625 15.6717 5.8625C15.0084 5.8625 14.4709 5.325 14.4709 4.6625Z" fill="white"/>
</svg>

<svg width="21" height="20" fill="none" xmlns="http://www.w3.org/2000/svg"><path fill-rule="evenodd" clip-rule="evenodd" d="M10.333 0C7.618 0 7.278.012 6.211.06 2.579.227.56 2.242.394 5.877.345 6.944.334 7.284.334 10s.011 3.057.06 4.123c.166 3.632 2.181 5.65 5.816 5.817 1.068.048 1.408.06 4.123.06 2.716 0 3.057-.012 4.124-.06 3.628-.167 5.651-2.182 5.816-5.817.049-1.066.06-1.407.06-4.123s-.011-3.056-.06-4.122C20.11 2.249 18.093.228 14.457.06 13.39.01 13.05 0 10.334 0Zm0 1.802c2.67 0 2.987.01 4.042.059 2.71.123 3.976 1.409 4.1 4.099.047 1.054.057 1.37.057 4.04 0 2.672-.01 2.988-.058 4.042-.124 2.687-1.387 3.975-4.099 4.099-1.055.048-1.37.058-4.042.058-2.67 0-2.986-.01-4.04-.058-2.717-.124-3.976-1.416-4.1-4.1-.048-1.054-.058-1.37-.058-4.041 0-2.67.01-2.986.058-4.04.125-2.69 1.387-3.977 4.1-4.1 1.055-.048 1.37-.058 4.04-.058ZM5.198 10a5.135 5.135 0 1 1 10.27 0 5.135 5.135 0 0 1-10.27 0Zm5.135 3.333a3.333 3.333 0 1 1 0-6.666 3.333 3.333 0 0 1 0 6.666Zm4.138-8.67a1.2 1.2 0 1 1 2.4 0 1.2 1.2 0 0 1-2.4 0Z" fill="#fff"/></svg>
